assets/Headstone/Flat/headstone_flat.svg

<svg width="32" height="32" viewBox="0 0 32 32" fill="none" xmlns="http://www.w3.org/2000/svg">
<path d="M20.2616 6C20.0334 6 19.8373 5.84418 19.7592 5.62984C19.1998 4.09552 17.7278 3 16 3C14.2722 3 12.8002 4.09552 12.2408 5.62984C12.1627 5.84418 11.9666 6 11.7384 6H10C8.89543 6 8 6.89543 8 8V25H7C6.44772 25 6 25.4477 6 26V27.5H26V26C26 25.4477 25.5523 25 25 25H24V8C24 6.89543 23.1046 6 22 6H20.2616Z" fill="#9B9B9B"/>
<path d="M16 5C14.8954 5 14 5.89543 14 7V7.07143C14 7.58426 13.5843 8 13.0714 8H10.5C10.2239 8 10 8.22386 10 8.5V25H9V8.5C9 7.67157 9.67157 7 10.5 7H13C13 5.34315 14.3431 4 16 4C17.6569 4 19 5.34315 19 7H21.5C22.3284 7 23 7.67157 23 8.5V25H22V8.5C22 8.22386 21.7761 8 21.5 8H18.9286C18.4157 8 18 7.58426 18 7.07143V7C18 5.89543 17.1046 5 16 5Z" fill="#636363"/>
<path d="M13 12.5C13 12.2239 13.2239 12 13.5 12H18.5C18.7761 12 19 12.2239 19 12.5C19 12.7761 18.7761 13 18.5 13H13.5C13.2239 13 13 12.7761 13 12.5Z" fill="#636363"/>
<path d="M13.5 15.5C13.5 15.2239 13.7239 15 14 15H18C18.2761 15 18.5 15.2239 18.5 15.5C18.5 15.7761 18.2761 16 18 16H14C13.7239 16 13.5 15.7761 13.5 15.5Z" fill="#636363"/>
<path d="M12.5 17C12.2239 17 12 17.2239 12 17.5C12 17.7761 12.2239 18 12.5 18H14.5C14.7761 18 15 17.7761 15 17.5C15 17.2239 14.7761 17 14.5 17H12.5Z" fill="#636363"/>
<path d="M16 17.5C16 17.2239 16.2239 17 16.5 17H19.5C19.7761 17 20 17.2239 20 17.5C20 17.7761 19.7761 18 19.5 18H16.5C16.2239 18 16 17.7761 16 17.5Z" fill="#636363"/>
<path d="M2 29C2 27.8954 2.89543 27 4 27H28C29.1046 27 30 27.8954 30 29V30H2V29Z" fill="#86D72F"/>
</svg>

<svg xmlns="http://www.w3.org/2000/svg" width="32" height="32" fill="none"><path fill="#9B9B9B" d="M20.262 6a.545.545 0 0 1-.503-.37 4.002 4.002 0 0 0-7.518 0 .545.545 0 0 1-.503.37H10a2 2 0 0 0-2 2v17H7a1 1 0 0 0-1 1v1.5h20V26a1 1 0 0 0-1-1h-1V8a2 2 0 0 0-2-2h-1.738Z"/><path fill="#636363" d="M16 5a2 2 0 0 0-2 2v.071a.929.929 0 0 1-.929.929H10.5a.5.5 0 0 0-.5.5V25H9V8.5A1.5 1.5 0 0 1 10.5 7H13a3 3 0 1 1 6 0h2.5A1.5 1.5 0 0 1 23 8.5V25h-1V8.5a.5.5 0 0 0-.5-.5h-2.571A.929.929 0 0 1 18 7.071V7a2 2 0 0 0-2-2Z"/><path fill="#636363" d="M13 12.5a.5.5 0 0 1 .5-.5h5a.5.5 0 0 1 0 1h-5a.5.5 0 0 1-.5-.5ZM13.5 15.5a.5.5 0 0 1 .5-.5h4a.5.5 0 0 1 0 1h-4a.5.5 0 0 1-.5-.5ZM12.5 17a.5.5 0 0 0 0 1h2a.5.5 0 0 0 0-1h-2ZM16 17.5a.5.5 0 0 1 .5-.5h3a.5.5 0 0 1 0 1h-3a.5.5 0 0 1-.5-.5Z"/><path fill="#86D72F" d="M2 29a2 2 0 0 1 2-2h24a2 2 0 0 1 2 2v1H2v-1Z"/></svg>
